src/assets/svgs/KeshavName_animated.svg

<svg height="221" viewBox="0 0 935 221" width="935"><path d="m163.411004 5c-23.549968 57.7243044-44.429904 99.076893-62.639808 124.057764-9.8583173 13.523924-21.0077749 32.324647-38.1871065 48.442236-7.3644048 6.909259-18.217266 21.05855-34.8096036 32.805244-1.5042463 1.064944-16.0887489 8.527776-20.91548418 4.532348-4.55966865-3.774357.54457043-18.914344 1.81346393-21.410674 3.37599705-6.641693 12.57198365-15.546987 27.58795995-26.71588 15.048548-11.200972 28.2696745-19.484135 39.6633795-24.84949 11.393705-5.365356 28.8278049-12.345664 52.3022989-20.940927 66.754587-19.746338 108.172756-33.5843443 124.254508-41.5140191 23.842814-11.7565399 19.259583-24.0151636 18.077553-29.4736907-.974498-4.500153-12.466351-12.5521852-30.250768-9.1418133-14.520866 2.7845473-32.192579 15.6465619-43.035275 22.578523-16.081518 10.2812497-39.096858 27.041631-69.046018 50.2811441-12.819983 10.827435-21.971619 19.229588-27.454908 25.206457-4.4502652 4.850857 39.874041 47.368947 70.048635 51.426173 20.116397 2.704818 49.081384 1.333615 86.894962-4.113609 14.939699-5.779857 27.934774-11.048571 38.985224-15.80614s19.347782-13.876802 24.891997-27.3577c.890118-20.182088-8.183532-32.021888-27.22095-35.519401-13.142853-2.414577-44.706311 13.434076-50.652894 38.790558-1.367404 5.830665-1.352225 17.509554 6.435938 27.764546 2.984618 3.929968 11.035542 9.343884 24.15277 16.241746 17.145596 4.951458 31.619778 7.015464 43.422546 6.192018 11.802767-.823446 29.183206-5.10986 52.141316-12.859241 18.903729-8.349484 31.821664-16.027481 38.753805-23.033992 5.345545-5.402894 18.97592-21.486802 22.76858-38.236981 1.941769-8.575769 3.654569-26.8265716-4.243746-36.4927858-6.683428-8.1793951-22.560572-8.6849042-27.168061-7.7248069-4.166102.8681222-12.987387 6.7604247-13.944676 13.7456461-.7767 5.6674925 5.408356 12.2965966 9.214692 15.6132926 5.62209 4.898875 19.212131 13.970492 40.770123 27.21485 3.920379 3.28984 6.871958 6.058024 8.854736 8.304551 1.425383 1.614987 7.834211 7.305152 9.145406 14.691572 1.424709 8.02589-2.410921 17.875521-5.277506 21.974649-2.966418 4.241885-11.54939 14.375805-21.594714 18.621277-8.595752 3.632836-18.857748 1.798512-20.949 1.153742-1.949389-.601032-7.845034-5.101812-6.219061-11.327379 2.156783-8.257944 12.72822-19.101011 16.166827-23.505782 4.020622-5.150319 10.645059-11.999396 19.873312-20.547232l82.496498-95.7520833c4.267776-5.1875123 7.084749-7.6953829 8.450917-7.5236118 2.049252.2576566 2.792591 18.4587276 1.692311 24.3414093-.733521 3.9217878-2.460071 9.732837-5.179651 17.4331476l-13.108043 29.8598072-12.789174 22.275933-24.191252 34.059813-8.216325 14.854964c-2.168716 5.335924-2.671804 8.606173-1.509263 9.810746 1.16254 1.204573 4.821763 1.204573 10.977668 0l52.323729-24.66571 48.068826-21.565355c9.420089-2.933298 14.912797-3.976318 16.478126-3.12906 1.565329.847257-.363585 4.221849-5.78674 10.123776l-14.507795 13.74105c-1.811719 4.610782-2.25681 7.462801-1.335272 8.556058.921539 1.093257 5.289904 1.387869 13.105097.883837 20.261239-5.191043 35.289631-9.443539 45.085177-12.757489 9.795546-3.313951 22.121803-8.315858 36.978769-15.005723 13.636525-6.209214 19.391082-8.056384 17.26367-5.541509-2.127411 2.514874-15.015452 12.137327-38.664121 28.86736l-7.063254 6.738014c-1.501534 4.331746-1.238423 7.147626.789331 8.44764 2.027754 1.300013 6.445139 2.366889 13.252154 3.200626 13.583069-1.053553 23.771261-2.120428 30.564576-3.200626 6.793315-1.080199 15.219123-2.973117 25.277424-5.678755 35.043779-7.117222 61.189084-13.059565 78.435914-17.827027 12.702343-3.511251 45.011484-10.087476 90.327281-27.839923 10.80835-4.234167 26.071591-11.591774 45.789721-22.072819 6.557261-6.169217 9.295673-9.894787 8.215235-11.176709-1.080437-1.281923-10.771638-2.026869-29.073602-2.234839" fill="none" stroke="#3b82e8" stroke-linecap="round" stroke-width="10"/></svg>

<svg width="935px" height="221px" viewBox="0 0 935 221" version="1.1" >
    <g id="Page-1" stroke="none" stroke-width="1" fill="none" fill-rule="evenodd" stroke-linecap="round">
        <path d="M163.411004,5 C139.861036,62.7243044 118.9811,104.076893 100.771196,129.057764 C90.9128787,142.581688 79.7634211,161.382411 62.5840895,177.5 C55.2196847,184.409259 44.3668235,198.55855 27.7744859,210.305244 C26.2702396,211.370188 11.685737,218.83302 6.85900172,214.837592 C2.29933307,211.063235 7.40357215,195.923248 8.67246565,193.426918 C12.0484627,186.785225 21.2444493,177.879931 36.2604256,166.711038 C51.3089736,155.510066 64.5301001,147.226903 75.9238051,141.861548 C87.3175101,136.496192 104.75161,129.515884 128.226104,120.920621 C194.980691,101.174283 236.39886,87.3362767 252.480612,79.4066019 C276.323426,67.650062 271.740195,55.3914383 270.558165,49.9329112 C269.583667,45.4327582 258.091814,37.380726 240.307397,40.7910979 C225.786531,43.5756452 208.114818,56.4376598 197.272122,63.3696209 C181.190604,73.6508706 158.175264,90.4112519 128.226104,113.650765 C115.406121,124.4782 106.254485,132.880353 100.771196,138.857222 C96.3209308,143.708079 140.645237,186.226169 170.819831,190.283395 C190.936228,192.988213 219.901215,191.61701 257.714793,186.169786 C272.654492,180.389929 285.649567,175.121215 296.700017,170.363646 C307.750467,165.606077 316.047799,156.486844 321.592014,143.005946 C322.482132,122.823858 313.408482,110.984058 294.371064,107.486545 C281.228211,105.071968 249.664753,120.920621 243.71817,146.277103 C242.350766,152.107768 242.365945,163.786657 250.154108,174.041649 C253.138726,177.971617 261.18965,183.385533 274.306878,190.283395 C291.452474,195.234853 305.926656,197.298859 317.729424,196.475413 C329.532191,195.651967 346.91263,191.365553 369.87074,183.616172 C388.774469,175.266688 401.692404,167.588691 408.624545,160.58218 C413.97009,155.179286 427.600465,139.095378 431.393125,122.345199 C433.334894,113.76943 435.047694,95.5186274 427.149379,85.8524132 C420.465951,77.6730181 404.588807,77.167509 399.981318,78.1276063 C395.815216,78.9957285 386.993931,84.888031 386.036642,91.8732524 C385.259942,97.5407449 391.444998,104.169849 395.251334,107.486545 C400.873424,112.38542 414.463465,121.457037 436.021457,134.701395 C439.941836,137.991235 442.893415,140.759419 444.876193,143.005946 C446.301576,144.620933 452.710404,150.311098 454.021599,157.697518 C455.446308,165.723408 451.610678,175.573039 448.744093,179.672167 C445.777675,183.914052 437.194703,194.047972 427.149379,198.293444 C418.553627,201.92628 408.291631,200.091956 406.200379,199.447186 C404.25099,198.846154 398.355345,194.345374 399.981318,188.119807 C402.138101,179.861863 412.709538,169.018796 416.148145,164.614025 C420.168767,159.463706 426.793204,152.614629 436.021457,144.066793 L518.517955,48.3147097 C522.785731,43.1271974 525.602704,40.6193268 526.968872,40.7910979 C529.018124,41.0487545 529.761463,59.2498255 528.661183,65.1325072 C527.927662,69.054295 526.201112,74.8653442 523.481532,82.5656548 L510.373489,112.425462 L497.584315,134.701395 L473.393063,168.761208 L465.176738,183.616172 C463.008022,188.952096 462.504934,192.222345 463.667475,193.426918 C464.830015,194.631491 468.489238,194.631491 474.645143,193.426918 L526.968872,168.761208 L575.037698,147.195853 C584.457787,144.262555 589.950495,143.219535 591.515824,144.066793 C593.081153,144.91405 591.152239,148.288642 585.729084,154.190569 L571.221289,167.931619 C569.40957,172.542401 568.964479,175.39442 569.886017,176.487677 C570.807556,177.580934 575.175921,177.875546 582.991114,177.371514 C603.252353,172.180471 618.280745,167.927975 628.076291,164.614025 C637.871837,161.300074 650.198094,156.298167 665.05506,149.608302 C678.691585,143.399088 684.446142,141.551918 682.31873,144.066793 C680.191319,146.581667 667.303278,156.20412 643.654609,172.934153 L636.591355,179.672167 C635.089821,184.003913 635.352932,186.819793 637.380686,188.119807 C639.40844,189.41982 643.825825,190.486696 650.63284,191.320433 C664.215909,190.26688 674.404101,189.200005 681.197416,188.119807 C687.990731,187.039608 696.416539,185.14669 706.47484,182.441052 C741.518619,175.32383 767.663924,169.381487 784.910754,164.614025 C797.613097,161.102774 829.922238,154.526549 875.238035,136.774102 C886.046385,132.539935 901.309626,125.182328 921.027756,114.701283 C927.585017,108.532066 930.323429,104.806496 929.242991,103.524574 C928.162554,102.242651 918.471353,101.497705 900.169389,101.289735" id="Path-2" stroke="#3B82E8" stroke-width="10" class="RiAkLsGo_0"></path>
    </g>
<!-- <style data-made-with="vivus-instant">.RiAkLsGo_0{stroke-dasharray:2778 2780;stroke-dashoffset:2779;animation:RiAkLsGo_draw 2780ms ease-out 0ms forwards;}@keyframes RiAkLsGo_draw{100%{stroke-dashoffset:0;}}@keyframes RiAkLsGo_fade{0%{stroke-opacity:1;}94.28571428571429%{stroke-opacity:1;}100%{stroke-opacity:0;}}</style> -->
</svg>
